X:127
T:Moll an Tiarna (r)
B:NFID.165
127moll_t
S:F&MB
N:1:Parts of this tune remind me "An Deontanach" (The Volunteer).
N:2:This is played A-B-C-D-E-B (with B repeating and ending on
|GG2G G4| instead of the second ending.)
L:1/8
M:C
R:reel
Q:360
K:C
%A
Gccd ecBc|d2ec dcAc|G2cd ecfe|AA2A AGED|
Gccd ecBc|d2ec dcAg|^fafd =fdec|G2 (3G^FG G=FEF||
P:B
Gccd e2ce|d2Bd c2cd|ecfd ecfe|1 AA2A AGE^|\
[2 GG2G G2e^f||
P:C
gbge ^fafd|egdB cBcd|egfd ecdc|AA2^G A2e^f|
g2 f2 e4|dd2B cBcd|egfd ecdB|GG2^F G2e=f|
P:D
gage ^fafd|egdB cBcd|egfd ecdc|AA2^G A2e^f|
gage ^fafd|egdB cBcd|egfd ecdB|GG2^F G=FEF||
P:E
Gccd e3c|d3B c3d|egfd ecdc|AA2A AGE^F|
Gccd e2ce|d2Bd c2cd|ecfd ecdB|GG2^F G4||

%%%

